X: 24031
T: Lon Dubh
R: hornpipe
M: 4/4
K: Amajor
(3cde|f3a e2(3efg|a2e>d c>eA>B|c>de>c d>fe>d|c>eA>e A2(3cde|
f>ef>a e2(3efg|a2e>d c2A>B|c>de>c d>fe>d|c>eA>e A2c>d||
|:e>aa>g a2b>d'|c'>ab>g a>ge>d|e>aa>g a2e'>d'|c'2a2 a2 (3d'c'b|
a>ge>c d2 (3efg|a2e>d c>eA>B|c>de>c d>fe>d|c>eA>e A2c>d:|

